X: 1
T: Hobart's Transformation
C: trad.
R: reel
N: Hobart (B.1775) was early American Bishop
S: 2011 NEFFA tune-set handout
O: USA
M: 4/4
L: 1/8
K: Em
|:\
"Am"e2a2 abag | e2a2 abag | "Em"edef gfgf |\
[1,3 edef gfgf :|2,4 "Am"edcB A4 :|
|:\
"Am"A2Ac "Em"BAGB | "Am"ABAG E2EG |\
[1,3 "Am"AGAB c2d2 | "Em"e3=f e4 :|\
[2,4 "Am"cBAc "G"BAG2 | "Am"A3B A4 :|
